X:4
T:Aarne Tarviaisen Masurkka
M:3/4
L:1/8
Q:1/4=150
R:masurkka
K:Dm
|: "Dm" A>B AG FE | D2 .d2 .d2 | "A7" A2 .^c2 .c2 | "Dm" A2 .d2 .d2 | !
"F" A>B AG FE | "Bb" D2 .d2 .d2 | "A7" A2 .^c2 cA |
[1 "Dm" .d2 .d2 z2 :|[2 "Dm" .d2 .d2 z e || !
|: "Dm" fe d2 d^c | "A7" .e2 A4 | a2 g2 ge | "Dm" af d2 de | !
fe d2 dc | "Gm" BA G2 F2 | "A7" E2 A2 A^c |
[1 "Dm" .d2 .d3 e :|[2 "Dm" .d2 .d2 z2 ||

